svg/fluentui-system-icons/ic_fluent_text_bullet_list_square_shield_20_regular.svg

<svg width="20" height="20" viewBox="0 0 20 20" fill="none" xmlns="http://www.w3.org/2000/svg">
<path d="M5.75 3H14.25C15.7688 3 17 4.23122 17 5.75V10.4172C16.6636 10.3282 16.3316 10.1642 16 9.90891V5.75C16 4.7835 15.2165 4 14.25 4H5.75C4.7835 4 4 4.7835 4 5.75V14.25C4 15.2165 4.7835 16 5.75 16H10.235C10.3293 16.3483 10.4527 16.6822 10.6065 17H5.75C4.23122 17 3 15.7688 3 14.25V5.75C3 4.23122 4.23122 3 5.75 3ZM9.5 10H12.8742C12.3728 10.3519 11.8692 10.5 11.35 10.5C10.9083 10.5 10.5467 10.7029 10.3093 11H9.5C9.22386 11 9 10.7761 9 10.5C9 10.2239 9.22386 10 9.5 10ZM6.75 8C7.16421 8 7.5 7.66421 7.5 7.25C7.5 6.83579 7.16421 6.5 6.75 6.5C6.33579 6.5 6 6.83579 6 7.25C6 7.66421 6.33579 8 6.75 8ZM7.5 10.25C7.5 10.6642 7.16421 11 6.75 11C6.33579 11 6 10.6642 6 10.25C6 9.83579 6.33579 9.5 6.75 9.5C7.16421 9.5 7.5 9.83579 7.5 10.25ZM7.5 13.25C7.5 13.6642 7.16421 14 6.75 14C6.33579 14 6 13.6642 6 13.25C6 12.8358 6.33579 12.5 6.75 12.5C7.16421 12.5 7.5 12.8358 7.5 13.25ZM9 7.5C9 7.22386 9.22386 7 9.5 7H13.5C13.7761 7 14 7.22386 14 7.5C14 7.77614 13.7761 8 13.5 8H9.5C9.22386 8 9 7.77614 9 7.5ZM14.499 19C14.462 18.9999 14.4249 18.9935 14.3893 18.9808C13.6976 18.7337 13.1099 18.4065 12.6279 18.0011L12.6266 18C12.279 17.7075 11.9865 17.3742 11.7497 17.0011L11.749 17C11.287 16.2717 11.0371 15.3915 11.0038 14.3647L11 14.1259V11.875C11 11.6679 11.1567 11.5 11.35 11.5C12.4205 11.5 13.3829 11.0418 14.2531 10.1098C14.3211 10.037 14.41 10.0004 14.499 10C14.5881 10.0004 14.677 10.037 14.7449 10.1098C15.6151 11.0418 16.5776 11.5 17.648 11.5C17.8413 11.5 17.998 11.6679 17.998 11.875V14.1259L17.9942 14.3647C17.961 15.3915 17.711 16.2717 17.2491 17L17.2484 17.0011C17.0115 17.3742 16.719 17.7075 16.3715 18L16.3701 18.0011C15.8882 18.4065 15.3005 18.7337 14.6087 18.9808C14.5731 18.9935 14.5361 18.9999 14.499 19Z" fill="#212121"/>
</svg>

<svg xmlns="http://www.w3.org/2000/svg" width="20" height="20"><path d="M5.75 3h8.5A2.75 2.75 0 0 1 17 5.75v4.667a2.81 2.81 0 0 1-1-.508V5.75A1.75 1.75 0 0 0 14.25 4h-8.5A1.75 1.75 0 0 0 4 5.75v8.5c0 .966.784 1.75 1.75 1.75h4.485c.094.348.218.682.372 1H5.75A2.75 2.75 0 0 1 3 14.25v-8.5A2.75 2.75 0 0 1 5.75 3Zm3.75 7h3.374c-.501.352-1.005.5-1.524.5a1.31 1.31 0 0 0-1.04.5H9.5a.5.5 0 0 1 0-1ZM6.75 8a.75.75 0 1 0 0-1.5.75.75 0 0 0 0 1.5Zm.75 2.25a.75.75 0 1 1-1.5 0 .75.75 0 0 1 1.5 0Zm0 3a.75.75 0 1 1-1.5 0 .75.75 0 0 1 1.5 0ZM9 7.5a.5.5 0 0 1 .5-.5h4a.5.5 0 0 1 0 1h-4a.5.5 0 0 1-.5-.5ZM14.499 19a.33.33 0 0 1-.11-.02c-.691-.246-1.28-.573-1.761-.979L12.627 18a4.342 4.342 0 0 1-.877-.999L11.749 17c-.462-.728-.712-1.608-.745-2.635l-.004-.24v-2.25c0-.207.157-.375.35-.375 1.07 0 2.033-.458 2.903-1.39A.337.337 0 0 1 14.5 10c.09 0 .178.037.246.11.87.932 1.833 1.39 2.903 1.39.193 0 .35.168.35.375v2.25l-.004.24c-.033 1.027-.283 1.907-.745 2.635v.001c-.237.373-.53.706-.877.999l-.002.001c-.482.405-1.07.733-1.761.98a.329.329 0 0 1-.11.019Z"/></svg>
